X: 10
T:Pasodoble de Viascón
M:2/4
L:1/16
Q:200
C:Trad
S:Rep. Ricardo Portela
R:Pasodoble
B:Os Segredos da Gaita. FOXO
K:C
c2B2 |: c2A2 A2G2 | E4 c2B2 | c2A2 A2G2 | F4 B2A2 | B2G2 G2F2 |
D4 B2A2 | G2G2 A2G2 | E4 c2B2 | c2A2 A2G2 | E4 c2B2 | c2A2 A2G2 |
F4 B2A2 | B2G2 G2F2 | D4 B2A2 | G2G2 A2B2 |1 c8- | c4 c2B2 :|2 c8-|
c8 | BcBA G4- | G2c2 B2A2 | GAGF E4- | E4 G2E2 |: G8- |
.G2.E2 | .G2 .E2 | .F.G.F.E D4- | D4 A2F2 | A8- | A2F2 A2F2 | GAGF E4- |
E4 G2E2 | G8- | G2E2 G2A2 | BcBA B4- | B2A2 B2c2|
BcBA G4- | G2F2 G2A2 | GAGF E4- |1 E4 G2E2 :|2 E4 E2G2 | c4 ||

